X:1
T:Title
%%score { ( 1 3 ) | ( 2 4 ) }
L:1/8
M:4/4
K:G
V:1 treble nm="Grand Piano"
V:3 treble 
V:2 bass 
V:4 bass 
V:1
 z4 z[Q:1/4=94] DGA | B6 z2 | B6 z2 | A6 z2 | B6 z2 | B6 z2 | B6 z2 | A6 z2 | %8
[M:5/8] [B,G]-[B,G]- [B,G]3 |[M:3/8] BBc |[M:4/4] d6 z2 | e6 z2 | d6 z2 | [DFA]6 GA | B6 z2 | %15
 c6 z2 |[M:9/8] d6 z3 |[M:11/16] [G,G]-[G,-DG-][G,-EG-][G,-EG-][G,DG]3/2 |] %18
V:2
 z4 z2 B,C | D6[K:treble] z2 | D6[K:bass] z2 | C6[K:treble] z2 | D6[K:bass] z2 | D6[K:treble] z2 | %6
 D6[K:bass] z2 | C6 z2 |[M:5/8] G,-G,- G,3 |[M:3/8][K:treble] GGA |[M:4/4] B6 z2 | %11
 c6[K:bass][K:treble] z2 | B6[K:bass] z2 | D,4- D,DB,[K:treble]D | G6[K:bass][K:treble] z2 | %15
 E6[K:bass][K:treble] z2 |[M:9/8] B6[K:bass] z3 |[M:11/16] z B,CCB,3/2 |] %18
V:3
 x8 | z GGG GBcB | z GGG GBBA | z FFF FAGA | z GGG GDGA | z GGG GBcB | z GGG GBBA | %7
 z FFF F[B,DG][DGB][CFA] |[M:5/8] x5 |[M:3/8] x3 |[M:4/4] z GGG GBcd | z GGG GedB | %12
 z GGG GB[DAc][DGB] | x8 | z DDD DGAB | z CCC CABc |[M:9/8] z GG GGB [DGB]3/2[CDFA]3/2 | %17
[M:11/16] [B,D] z/ z/ z/ z/ z/ z/ z/ z |] %18
V:4
 x8 | z G,G,G, G,[K:treble]DED | z G,[K:bass]G,G, G,DDC | z D,D,D, D,[K:treble]CB,C | %4
 z G,[K:bass]G,G, .G,2 B,C | z G,G,G, G,[K:treble]DED | z G,[K:bass]G,G, G,DDC | %7
 z D,D,D, D,D,D,D, |[M:5/8] x5 |[M:3/8][K:treble] x3 |[M:4/4] z [G,D][G,D][G,D] [G,D]GAB | %11
 z[K:bass] [C,C][C,C][C,C] [C,C][K:treble]cBG | z [G,D][G,D][G,D] [G,D][G,DG][K:bass]F,G, | %13
 x7[K:treble] x | z[K:bass] [G,,G,][G,,G,][G,,G,] .[G,,G,]2[K:treble] F=F | %15
 z[K:bass] [C,G,][C,G,][C,G,] [C,G,][K:treble]FGA | %16
[M:9/8] z [G,D][G,D] [G,D][G,D][G,DG][K:bass] D,3/2D,3/2 | %17
[M:11/16] G,,/-G,,/-G,,/-G,,/-G,,/-G,,/-G,,/-G,,-<G,, |] %18

